modules/feathericon/icons/beginner.svg

<?xml version="1.0" encoding="UTF-8"?>
<svg width="24px" height="24px" viewBox="0 0 24 24" version="1.1" xmlns="http://www.w3.org/2000/svg" xmlns:xlink="http://www.w3.org/1999/xlink">
    <!-- Generator: sketchtool 52.2 (67145) - http://www.bohemiancoding.com/sketch -->
    <title>beginner</title>
    <desc>Created with sketchtool.</desc>
    <g id="web-app" stroke="none" stroke-width="1" fill="none" fill-rule="evenodd">
        <g id="beginner" fill="#000000" fill-rule="nonzero">
            <path d="M12,7.52868728 L5,5.09046866 L5,15.4620258 L12,18.712984 L12,7.52868728 Z M5.63245553,3.10781386 L12,5.32573749 L18.3675445,3.10781386 C19.4154311,2.74281719 20.5480711,3.33459371 20.8973666,4.42958373 C20.9653442,4.64268362 21,4.86584165 21,5.09046866 L21,15.4620258 C21,16.2879314 20.534533,17.0363701 19.8122769,17.3718021 L12,21 L4.18772307,17.3718021 C3.46546704,17.0363701 3,16.2879314 3,15.4620258 L3,5.09046866 C3,3.93624784 3.8954305,3.000567 5,3.000567 C5.21496419,3.000567 5.42852259,3.03678056 5.63245553,3.10781386 Z" id="Shape"></path>
        </g>
    </g>
</svg>

<svg width="24" height="24" viewBox="0 0 24 24" xmlns="http://www.w3.org/2000/svg"><path d="M12 7.529L5 5.09v10.372l7 3.251V7.529zM5.632 3.108L12 5.326l6.368-2.218c1.047-.365 2.18.227 2.53 1.322.067.213.102.436.102.66v10.372c0 .826-.465 1.574-1.188 1.91L12 21l-7.812-3.628C3.465 17.036 3 16.288 3 15.462V5.09C3 3.936 3.895 3 5 3c.215 0 .429.037.632.108z" fill="#000" fill-rule="nonzero"/></svg>
